svgs/sharp-solid/oil-can-drip.svg

<svg xmlns="http://www.w3.org/2000/svg" viewBox="0 0 640 512"><!--! Font Awesome Pro 6.6.0 by @fontawesome - https://fontawesome.com License - https://fontawesome.com/license (Commercial License) Copyright 2024 Fonticons, Inc. --><path d="M352 128l-64 0 0 32 96 0 64 32 160-32 32 32L432 416l-48 0L96 416l0-69.3L0 304l0-96 0-48 48 0 48 0 48 0 80 0 0-32-64 0 0-64 192 0 0 64zM48 208l0 64.8 48 21.3L96 208l-48 0zM592 448c-26.5 0-48-21.5-48-48c0-32 48-96 48-96s48 64 48 96s-21.5 48-48 48z"/></svg>

<svg xmlns="http://www.w3.org/2000/svg" viewBox="0 0 640 512"><!--! Font Awesome Pro 6.4.2 by @fontawesome - https://fontawesome.com License - https://fontawesome.com/license (Commercial License) Copyright 2023 Fonticons, Inc. --><path d="M352 128H288v32h96l64 32 160-32 32 32L432 416H384 96V346.7L0 304V208 160H48 96h48 80V128H160V64H352v64zM48 208v64.8l48 21.3V208H48zM592 448c-26.5 0-48-21.5-48-48c0-32 48-96 48-96s48 64 48 96s-21.5 48-48 48z"/></svg>
